svg/set/BOT/WM.svg

<?xml version="1.0" encoding="utf-8"?>
<!-- Generator: Adobe Illustrator 15.1.0, SVG Export Plug-In . SVG Version: 6.00 Build 0)  -->
<!DOCTYPE svg PUBLIC "-//W3C//DTD SVG 1.1//EN" "http://www.w3.org/Graphics/SVG/1.1/DTD/svg11.dtd">
<svg version="1.1" id="Layer_1" xmlns="http://www.w3.org/2000/svg" xmlns:xlink="http://www.w3.org/1999/xlink" x="0px" y="0px"
	 width="135px" height="155px" viewBox="0 0 135 155" enable-background="new 0 0 135 155" xml:space="preserve">
<g id="Layer_1_1_">
</g>
<g id="Layer_3" display="none">
</g>
<g>
	<path d="M65.052,63.824v54.959h-4.635V80.9l-5.699-21.807L65.052,63.824z M58.728,135.108l-4.651,17.524h10.975v-17.524H58.728z
		 M55.683,124.809V93.222l-12.23,10.3v45.258l6.396,2.975l4.913-20.72h10.29v-6.226H55.683z M133.092,2.633l-6.057,63.655
		l-56.051,85.2V83.314l8.282-8.19c2.607-2.736,5.999-6.133,8.899-6.922l27.2-9.622l0.339-5.203L86.451,64.295l1.346-7.336
		l28.343-10.23l0.358-5.5l-27.512,9.248L91.52,36.97l26.092-9.309L133.092,2.633z M112.514,71.416L73.825,85.753l8.529,17.674
		L112.514,71.416z M49.788,38.043c0,0,7.329-2.38,15.264-2.68V23.261c-13.708-0.076-27.283,2.065-40.727,6.509l2.226,11.981
		l38.501,17.891V46.604L49.788,38.043z M117.95,129.631l7.17-53.148l-50.17,75.309L117.95,129.631z M75.434,43.049l-4.449,14.749
		v20.608l9.826-11.256L91.748,4.487L76.207,32.572h-5.223v10.477H75.434z M22.403,94.019l-1.307-11.45l-9.685-5.93l3.768,57.248
		l23.887,12.709v-41.684L22.403,94.019z M27.693,81.241L10.325,69.644L2.729,27.545h16.713l3.382,16.304l26.171,13.04l6.416,24.352
		H27.693z M15.939,52.093l27.789,11.625l-0.895-4.771L15.554,47.5L15.939,52.093z M17.225,62.245L45.729,74.41l-0.859-4.589
		L16.848,57.973L17.225,62.245z"/>
</g>
</svg>

<?xml version="1.0" encoding="UTF-8" standalone="no"?>
<!-- Generator: Adobe Illustrator 15.1.0, SVG Export Plug-In . SVG Version: 6.00 Build 0)  -->

<svg
   version="1.1"
   id="Layer_1"
   x="0px"
   y="0px"
   width="130.36301"
   height="149.99899"
   viewBox="0 0 130.36301 149.99899"
   enable-background="new 0 0 135 155"
   xml:space="preserve"
   xmlns="http://www.w3.org/2000/svg"
   xmlns:svg="http://www.w3.org/2000/svg"><defs
   id="defs1" />
<g
   id="Layer_1_1_"
   transform="translate(-2.729,-2.633)">
</g>
<g
   id="Layer_3"
   display="none"
   transform="translate(-2.729,-2.633)">
</g>
<g
   id="g1"
   transform="translate(-2.729,-2.633)">
	<path
   d="m 65.052,63.824 v 54.959 H 60.417 V 80.9 L 54.718,59.093 Z m -6.324,71.284 -4.651,17.524 H 65.052 V 135.108 Z M 55.683,124.809 V 93.222 l -12.23,10.3 v 45.258 l 6.396,2.975 4.913,-20.72 h 10.29 v -6.226 z m 77.409,-122.176 -6.057,63.655 -56.051,85.2 V 83.314 l 8.282,-8.19 c 2.607,-2.736 5.999,-6.133 8.899,-6.922 l 27.2,-9.622 0.339,-5.203 -29.253,10.918 1.346,-7.336 28.343,-10.23 0.358,-5.5 -27.512,9.248 2.534,-13.507 26.092,-9.309 z m -20.578,68.783 -38.689,14.337 8.529,17.674 z M 49.788,38.043 c 0,0 7.329,-2.38 15.264,-2.68 V 23.261 C 51.344,23.185 37.769,25.326 24.325,29.77 l 2.226,11.981 38.501,17.891 V 46.604 Z m 68.162,91.588 7.17,-53.148 -50.17,75.309 z M 75.434,43.049 70.985,57.798 V 78.406 L 80.811,67.15 91.748,4.487 76.207,32.572 h -5.223 v 10.477 z m -53.031,50.97 -1.307,-11.45 -9.685,-5.93 3.768,57.248 23.887,12.709 V 104.912 Z M 27.693,81.241 10.325,69.644 2.729,27.545 h 16.713 l 3.382,16.304 26.171,13.04 6.416,24.352 z M 15.939,52.093 43.728,63.718 42.833,58.947 15.554,47.5 Z M 17.225,62.245 45.729,74.41 44.87,69.821 16.848,57.973 Z"
   id="path1" />
</g>
</svg>
